shader_type canvas_item;

uniform vec4 color_top : source_color = vec4(0.1, 0.1, 0.2, 1.0);
uniform vec4 color_bottom : source_color = vec4(0.2, 0.2, 0.4, 1.0);

void fragment() {
	COLOR = mix(color_bottom, color_top, UV.y);
}
